!!!OTL: Munabai
!!!ONR: No. 11
!! From Jaap Kunst "Music in New Guinea; Three Studies"
!! Verhandelingen van het Koninkluijk Instituut voor Taal-,
!! Land- end Volkenkunde, Deel 53
!! English translation and correction by Jeune Scott-Kemball
!! Publication Place: 'S-Gravenhage
!! Publisher: Martinus Nijhoff, 1967
!! From Chapter II: Songs of New Guinea, page 92
!!PLACE: Pacifica, New Guinea, Warope\n Coast
!!SINGER: Sindusi
!!!PSX: M
!!!ENCODER: D. Huron
**kern	**dynamics
*clefF4	*
*k[]	*
*MX	*MX
8c	mf
=1	=1
*M3/8	*M3/8
4c	.
16d-	.
16d-	.
=2	=2
*M4/8	*M4/8
4d-	.
16c	.
[16d-	.
8d-]	.
=3	=3
*M3/8	*M3/8
8c	.
8.A	.
16A	.
=4	=4
8A	.
4G	.
8A	.
=5	=5
*M3/8	*M3/8
4c	.
16A	.
16A	.
=6	=6
8A	.
8G	.
8A	.
=7	=7
(16A	.
8.F)	.
16F	.
16F	.
=8	=8
4.F	>
=9	=9
.	|
.	]
4F	p
8r	.
=10||	=10||
4r;	.
16G	mf
16A	.
=11	=11
4c	.
8c	.
=12	=12
(16c	.
8.A-)	.
8A-	.
=13	=13
4c	.
16An	.
16A	.
=14	=14
(16A	.
8.F)	.
16A	.
16A	.
=15	=15
(16A	.
8.F)	.
16G	.
16A	.
=16	=16
8A	.
8F	.
8F	.
=17	=17
4F	.
8F	>
.	|
=18	=18
.	]
4F	p
=19||	=19||
16A	mf
16A	.
=20	=20
*M4/8	*M4/8
8A	.
16G	.
16A	.
8c	.
16A	.
16A	.
=21	=21
16A	.
16G	.
16F	.
16G	.
8A	.
16A	.
16A	.
=22	=22
16A	.
16G	.
16F	.
16G	.
8A	.
16A	.
16A	.
=23	=23
16A	.
16G	.
16F	.
16G	.
16A	.
8A	.
16G	.
=24	=24
16F	.
16F	.
16F	.
16F	.
16F	.
8r	.
==|!	==|!
*-	*-
